images/3234219.svg

<?xml version="1.0" encoding="UTF-8"?>
<svg xmlns="http://www.w3.org/2000/svg" xmlns:xlink="http://www.w3.org/1999/xlink" width="300pt" height="300pt" viewBox="0 0 300 300" version="1.1">
<defs>
<g>
<symbol overflow="visible" id="glyph0-0">
<path style="stroke:none;" d="M 0.546875 1.9375 L 0.546875 -7.75 L 6.046875 -7.75 L 6.046875 1.9375 Z M 1.171875 1.328125 L 5.4375 1.328125 L 5.4375 -7.140625 L 1.171875 -7.140625 Z M 1.171875 1.328125 "/>
</symbol>
<symbol overflow="visible" id="glyph0-1">
<path style="stroke:none;" d="M 1.078125 -8.015625 L 2.546875 -8.015625 L 6.09375 -1.3125 L 6.09375 -8.015625 L 7.15625 -8.015625 L 7.15625 0 L 5.6875 0 L 2.125 -6.703125 L 2.125 0 L 1.078125 0 Z M 1.078125 -8.015625 "/>
</symbol>
<symbol overflow="visible" id="glyph0-2">
<path style="stroke:none;" d="M 1.078125 -8.015625 L 2.171875 -8.015625 L 2.171875 -4.734375 L 6.109375 -4.734375 L 6.109375 -8.015625 L 7.1875 -8.015625 L 7.1875 0 L 6.109375 0 L 6.109375 -3.8125 L 2.171875 -3.8125 L 2.171875 0 L 1.078125 0 Z M 1.078125 -8.015625 "/>
</symbol>
</g>
</defs>
<g id="surface45241">
<rect x="0" y="0" width="300" height="300" style="fill:rgb(100%,100%,100%);fill-opacity:1;stroke:none;"/>
<path style="fill:none;stroke-width:1.2;stroke-linecap:butt;stroke-linejoin:miter;stroke:rgb(0%,0%,0%);stroke-opacity:1;stroke-miterlimit:10;" d="M 35.25 184.261719 L 42.742188 172.132812 "/>
<path style="fill:none;stroke-width:1.2;stroke-linecap:butt;stroke-linejoin:miter;stroke:rgb(0%,0%,100%);stroke-opacity:1;stroke-miterlimit:10;" d="M 42.742188 172.132812 L 50.238281 160.003906 "/>
<path style="fill:none;stroke-width:1.2;stroke-linecap:butt;stroke-linejoin:miter;stroke:rgb(0%,0%,100%);stroke-opacity:1;stroke-miterlimit:10;" d="M 50.238281 160.003906 L 43.480469 147.449219 "/>
<path style="fill:none;stroke-width:1.2;stroke-linecap:butt;stroke-linejoin:miter;stroke:rgb(0%,0%,0%);stroke-opacity:1;stroke-miterlimit:10;" d="M 43.480469 147.449219 L 36.722656 134.894531 "/>
<path style="fill:none;stroke-width:1.2;stroke-linecap:butt;stroke-linejoin:miter;stroke:rgb(0%,0%,100%);stroke-opacity:1;stroke-miterlimit:10;" d="M 50.238281 160.003906 L 64.488281 160.429688 "/>
<path style="fill:none;stroke-width:1.2;stroke-linecap:butt;stroke-linejoin:miter;stroke:rgb(0%,0%,0%);stroke-opacity:1;stroke-miterlimit:10;" d="M 64.488281 160.429688 L 78.742188 160.855469 "/>
<path style=" stroke:none;fill-rule:nonzero;fill:rgb(100%,100%,100%);fill-opacity:1;" d="M 46.238281 153.503906 L 54.238281 153.503906 L 54.238281 166.503906 L 46.238281 166.503906 Z M 46.238281 153.503906 "/>
<g style="fill:rgb(0%,0%,100%);fill-opacity:1;">
  <use xlink:href="#glyph0-1" x="46.238281" y="163.405273"/>
</g>
<path style="fill:none;stroke-width:1.2;stroke-linecap:butt;stroke-linejoin:miter;stroke:rgb(0%,0%,0%);stroke-opacity:1;stroke-miterlimit:10;" d="M 78.742188 160.855469 L 93.730469 136.59375 "/>
<path style="fill:none;stroke-width:1.2;stroke-linecap:butt;stroke-linejoin:miter;stroke:rgb(0%,0%,0%);stroke-opacity:1;stroke-miterlimit:10;" d="M 93.730469 136.59375 L 80.214844 111.484375 "/>
<path style="fill:none;stroke-width:1.2;stroke-linecap:butt;stroke-linejoin:miter;stroke:rgb(0%,0%,0%);stroke-opacity:1;stroke-miterlimit:10;" d="M 98.285156 130.902344 L 87.472656 110.816406 "/>
<path style="fill:none;stroke-width:1.2;stroke-linecap:butt;stroke-linejoin:miter;stroke:rgb(0%,0%,0%);stroke-opacity:1;stroke-miterlimit:10;" d="M 122.234375 137.445312 L 93.730469 136.59375 "/>
<path style="fill:none;stroke-width:1.2;stroke-linecap:butt;stroke-linejoin:miter;stroke:rgb(0%,0%,0%);stroke-opacity:1;stroke-miterlimit:10;" d="M 80.214844 111.484375 L 95.203125 87.226562 "/>
<path style="fill:none;stroke-width:1.2;stroke-linecap:butt;stroke-linejoin:miter;stroke:rgb(0%,0%,0%);stroke-opacity:1;stroke-miterlimit:10;" d="M 95.203125 87.226562 L 123.707031 88.074219 "/>
<path style="fill:none;stroke-width:1.2;stroke-linecap:butt;stroke-linejoin:miter;stroke:rgb(0%,0%,0%);stroke-opacity:1;stroke-miterlimit:10;" d="M 97.851562 94.015625 L 120.65625 94.699219 "/>
<path style="fill:none;stroke-width:1.2;stroke-linecap:butt;stroke-linejoin:miter;stroke:rgb(0%,0%,0%);stroke-opacity:1;stroke-miterlimit:10;" d="M 123.707031 88.074219 L 137.222656 113.1875 "/>
<path style="fill:none;stroke-width:1.2;stroke-linecap:butt;stroke-linejoin:miter;stroke:rgb(0%,0%,0%);stroke-opacity:1;stroke-miterlimit:10;" d="M 137.222656 113.1875 L 122.234375 137.445312 "/>
<path style="fill:none;stroke-width:1.2;stroke-linecap:butt;stroke-linejoin:miter;stroke:rgb(0%,0%,0%);stroke-opacity:1;stroke-miterlimit:10;" d="M 130.015625 112.085938 L 118.023438 131.492188 "/>
<path style="fill:none;stroke-width:1.2;stroke-linecap:butt;stroke-linejoin:miter;stroke:rgb(0%,0%,0%);stroke-opacity:1;stroke-miterlimit:10;" d="M 122.234375 137.445312 L 135.75 162.554688 "/>
<path style="fill:none;stroke-width:1.2;stroke-linecap:butt;stroke-linejoin:miter;stroke:rgb(0%,0%,0%);stroke-opacity:1;stroke-miterlimit:10;" d="M 135.75 162.554688 L 120.761719 186.8125 "/>
<path style="fill:none;stroke-width:1.2;stroke-linecap:butt;stroke-linejoin:miter;stroke:rgb(0%,0%,0%);stroke-opacity:1;stroke-miterlimit:10;" d="M 139.957031 168.507812 L 127.96875 187.914062 "/>
<path style="fill:none;stroke-width:1.2;stroke-linecap:butt;stroke-linejoin:miter;stroke:rgb(0%,0%,0%);stroke-opacity:1;stroke-miterlimit:10;" d="M 164.25 163.40625 L 135.75 162.554688 "/>
<path style="fill:none;stroke-width:1.2;stroke-linecap:butt;stroke-linejoin:miter;stroke:rgb(0%,0%,0%);stroke-opacity:1;stroke-miterlimit:10;" d="M 120.761719 186.8125 L 127.519531 199.371094 "/>
<path style="fill:none;stroke-width:1.2;stroke-linecap:butt;stroke-linejoin:miter;stroke:rgb(0%,0%,100%);stroke-opacity:1;stroke-miterlimit:10;" d="M 127.519531 199.371094 L 134.273438 211.925781 "/>
<path style="fill:none;stroke-width:1.2;stroke-linecap:butt;stroke-linejoin:miter;stroke:rgb(0%,0%,100%);stroke-opacity:1;stroke-miterlimit:10;" d="M 134.273438 211.925781 L 148.527344 212.347656 "/>
<path style="fill:none;stroke-width:1.2;stroke-linecap:butt;stroke-linejoin:miter;stroke:rgb(0%,0%,0%);stroke-opacity:1;stroke-miterlimit:10;" d="M 148.527344 212.347656 L 162.777344 212.773438 "/>
<path style="fill:none;stroke-width:1.2;stroke-linecap:butt;stroke-linejoin:miter;stroke:rgb(0%,0%,100%);stroke-opacity:1;stroke-miterlimit:10;" d="M 137.324219 205.300781 L 148.726562 205.644531 "/>
<path style="fill:none;stroke-width:1.2;stroke-linecap:butt;stroke-linejoin:miter;stroke:rgb(0%,0%,0%);stroke-opacity:1;stroke-miterlimit:10;" d="M 148.726562 205.644531 L 160.128906 205.984375 "/>
<path style=" stroke:none;fill-rule:nonzero;fill:rgb(100%,100%,100%);fill-opacity:1;" d="M 130.273438 205.425781 L 138.273438 205.425781 L 138.273438 218.425781 L 130.273438 218.425781 Z M 130.273438 205.425781 "/>
<g style="fill:rgb(0%,0%,100%);fill-opacity:1;">
  <use xlink:href="#glyph0-1" x="130.273438" y="215.327148"/>
</g>
<path style="fill:none;stroke-width:1.2;stroke-linecap:butt;stroke-linejoin:miter;stroke:rgb(0%,0%,0%);stroke-opacity:1;stroke-miterlimit:10;" d="M 162.777344 212.773438 L 170.273438 200.644531 "/>
<path style="fill:none;stroke-width:1.2;stroke-linecap:butt;stroke-linejoin:miter;stroke:rgb(0%,0%,100%);stroke-opacity:1;stroke-miterlimit:10;" d="M 170.273438 200.644531 L 177.765625 188.515625 "/>
<path style="fill:none;stroke-width:1.2;stroke-linecap:butt;stroke-linejoin:miter;stroke:rgb(0%,0%,100%);stroke-opacity:1;stroke-miterlimit:10;" d="M 177.765625 188.515625 L 171.007812 175.960938 "/>
<path style="fill:none;stroke-width:1.2;stroke-linecap:butt;stroke-linejoin:miter;stroke:rgb(0%,0%,0%);stroke-opacity:1;stroke-miterlimit:10;" d="M 171.007812 175.960938 L 164.25 163.40625 "/>
<path style="fill:none;stroke-width:1.2;stroke-linecap:butt;stroke-linejoin:miter;stroke:rgb(0%,0%,100%);stroke-opacity:1;stroke-miterlimit:10;" d="M 170.507812 189.183594 L 165.101562 179.140625 "/>
<path style="fill:none;stroke-width:1.2;stroke-linecap:butt;stroke-linejoin:miter;stroke:rgb(0%,0%,0%);stroke-opacity:1;stroke-miterlimit:10;" d="M 165.101562 179.140625 L 159.695312 169.097656 "/>
<path style=" stroke:none;fill-rule:nonzero;fill:rgb(100%,100%,100%);fill-opacity:1;" d="M 173.765625 182.015625 L 181.765625 182.015625 L 181.765625 195.015625 L 173.765625 195.015625 Z M 173.765625 182.015625 "/>
<g style="fill:rgb(0%,0%,100%);fill-opacity:1;">
  <use xlink:href="#glyph0-1" x="173.765625" y="191.916992"/>
</g>
<path style="fill:none;stroke-width:1.2;stroke-linecap:butt;stroke-linejoin:miter;stroke:rgb(0%,0%,0%);stroke-opacity:1;stroke-miterlimit:10;" d="M 164.25 163.40625 L 171.746094 151.277344 "/>
<path style="fill:none;stroke-width:1.2;stroke-linecap:butt;stroke-linejoin:miter;stroke:rgb(0%,0%,100%);stroke-opacity:1;stroke-miterlimit:10;" d="M 171.746094 151.277344 L 179.238281 139.144531 "/>
<path style="fill:none;stroke-width:1.2;stroke-linecap:butt;stroke-linejoin:miter;stroke:rgb(0%,0%,100%);stroke-opacity:1;stroke-miterlimit:10;" d="M 179.238281 139.144531 L 193.492188 139.570312 "/>
<path style="fill:none;stroke-width:1.2;stroke-linecap:butt;stroke-linejoin:miter;stroke:rgb(0%,0%,0%);stroke-opacity:1;stroke-miterlimit:10;" d="M 193.492188 139.570312 L 207.742188 139.996094 "/>
<path style=" stroke:none;fill-rule:nonzero;fill:rgb(100%,100%,100%);fill-opacity:1;" d="M 171.238281 132.644531 L 188.238281 132.644531 L 188.238281 145.644531 L 171.238281 145.644531 Z M 171.238281 132.644531 "/>
<g style="fill:rgb(0%,0%,100%);fill-opacity:1;">
  <use xlink:href="#glyph0-1" x="171.238281" y="142.545898"/>
  <use xlink:href="#glyph0-2" x="179.22168" y="142.545898"/>
</g>
<path style="fill:none;stroke-width:1.2;stroke-linecap:butt;stroke-linejoin:miter;stroke:rgb(0%,0%,0%);stroke-opacity:1;stroke-miterlimit:10;" d="M 207.742188 139.996094 L 221.257812 165.105469 "/>
<path style="fill:none;stroke-width:1.2;stroke-linecap:butt;stroke-linejoin:miter;stroke:rgb(0%,0%,0%);stroke-opacity:1;stroke-miterlimit:10;" d="M 215.003906 139.328125 L 225.816406 159.414062 "/>
<path style="fill:none;stroke-width:1.2;stroke-linecap:butt;stroke-linejoin:miter;stroke:rgb(0%,0%,0%);stroke-opacity:1;stroke-miterlimit:10;" d="M 222.730469 115.738281 L 207.742188 139.996094 "/>
<path style="fill:none;stroke-width:1.2;stroke-linecap:butt;stroke-linejoin:miter;stroke:rgb(0%,0%,0%);stroke-opacity:1;stroke-miterlimit:10;" d="M 221.257812 165.105469 L 249.761719 165.957031 "/>
<path style="fill:none;stroke-width:1.2;stroke-linecap:butt;stroke-linejoin:miter;stroke:rgb(0%,0%,0%);stroke-opacity:1;stroke-miterlimit:10;" d="M 249.761719 165.957031 L 257.257812 153.828125 "/>
<path style="fill:none;stroke-width:1.2;stroke-linecap:butt;stroke-linejoin:miter;stroke:rgb(0%,0%,100%);stroke-opacity:1;stroke-miterlimit:10;" d="M 257.257812 153.828125 L 264.75 141.695312 "/>
<path style="fill:none;stroke-width:1.2;stroke-linecap:butt;stroke-linejoin:miter;stroke:rgb(0%,0%,0%);stroke-opacity:1;stroke-miterlimit:10;" d="M 245.550781 160.003906 L 251.546875 150.300781 "/>
<path style="fill:none;stroke-width:1.2;stroke-linecap:butt;stroke-linejoin:miter;stroke:rgb(0%,0%,100%);stroke-opacity:1;stroke-miterlimit:10;" d="M 251.546875 150.300781 L 257.542969 140.597656 "/>
<path style="fill:none;stroke-width:1.2;stroke-linecap:butt;stroke-linejoin:miter;stroke:rgb(0%,0%,100%);stroke-opacity:1;stroke-miterlimit:10;" d="M 264.75 141.695312 L 257.992188 129.140625 "/>
<path style="fill:none;stroke-width:1.2;stroke-linecap:butt;stroke-linejoin:miter;stroke:rgb(0%,0%,0%);stroke-opacity:1;stroke-miterlimit:10;" d="M 257.992188 129.140625 L 251.234375 116.585938 "/>
<path style=" stroke:none;fill-rule:nonzero;fill:rgb(100%,100%,100%);fill-opacity:1;" d="M 260.75 135.195312 L 268.75 135.195312 L 268.75 148.195312 L 260.75 148.195312 Z M 260.75 135.195312 "/>
<g style="fill:rgb(0%,0%,100%);fill-opacity:1;">
  <use xlink:href="#glyph0-1" x="260.75" y="145.09668"/>
</g>
<path style="fill:none;stroke-width:1.2;stroke-linecap:butt;stroke-linejoin:miter;stroke:rgb(0%,0%,0%);stroke-opacity:1;stroke-miterlimit:10;" d="M 251.234375 116.585938 L 222.730469 115.738281 "/>
<path style="fill:none;stroke-width:1.2;stroke-linecap:butt;stroke-linejoin:miter;stroke:rgb(0%,0%,0%);stroke-opacity:1;stroke-miterlimit:10;" d="M 248.183594 123.210938 L 225.382812 122.527344 "/>
</g>
</svg>

<svg xmlns="http://www.w3.org/2000/svg" xmlns:xlink="http://www.w3.org/1999/xlink" width="300pt" height="300pt" viewBox="0 0 300 300"><defs><symbol overflow="visible"><path d="M.547 1.938V-7.75h5.5v9.688zm.625-.61h4.266v-8.47H1.171zm0 0"/></symbol><symbol overflow="visible" id="a"><path d="M1.078-8.016h1.47l3.546 6.704v-6.704h1.062V0H5.688L2.124-6.703V0H1.078zm0 0"/></symbol><symbol overflow="visible" id="b"><path d="M1.078-8.016h1.094v3.282H6.11v-3.282h1.077V0H6.11v-3.813H2.17V0H1.078zm0 0"/></symbol></defs><g><path fill="#fff" d="M0 0h300v300H0z"/><path d="M35.25 184.262l7.492-12.13" stroke-width="1.2" stroke="#000" stroke-miterlimit="10" fill="none"/><path d="M42.742 172.133l7.496-12.13M50.238 160.004L43.48 147.45" stroke-width="1.2" stroke="#00f" stroke-miterlimit="10" fill="none"/><path d="M43.48 147.45l-6.757-12.555" stroke-width="1.2" stroke="#000" stroke-miterlimit="10" fill="none"/><path d="M50.238 160.004l14.25.426" stroke-width="1.2" stroke="#00f" stroke-miterlimit="10" fill="none"/><path d="M64.488 160.43l14.254.425" stroke-width="1.2" stroke="#000" stroke-miterlimit="10" fill="none"/><path d="M46.238 153.504h8v13h-8zm0 0" fill="#fff"/><use xlink:href="#a" x="46.238" y="163.405" fill="#00f"/><path d="M78.742 160.855l14.988-24.26M93.73 136.594l-13.515-25.11M98.285 130.902l-10.812-20.086M122.234 137.445l-28.504-.85M80.215 111.484l14.988-24.257M95.203 87.227l28.504.847M97.852 94.016l22.804.683M123.707 88.074l13.516 25.114M137.223 113.188l-14.99 24.257M130.016 112.086l-11.993 19.406M122.234 137.445l13.516 25.11M135.75 162.555l-14.988 24.257M139.957 168.508l-11.988 19.406M164.25 163.406l-28.5-.85M120.762 186.813l6.758 12.558" stroke-width="1.2" stroke="#000" stroke-miterlimit="10" fill="none"/><path d="M127.52 199.37l6.753 12.556M134.273 211.926l14.254.422" stroke-width="1.2" stroke="#00f" stroke-miterlimit="10" fill="none"/><path d="M148.527 212.348l14.25.425" stroke-width="1.2" stroke="#000" stroke-miterlimit="10" fill="none"/><path d="M137.324 205.3l11.403.345" stroke-width="1.2" stroke="#00f" stroke-miterlimit="10" fill="none"/><path d="M148.727 205.645l11.402.34" stroke-width="1.2" stroke="#000" stroke-miterlimit="10" fill="none"/><path d="M130.273 205.426h8v13h-8zm0 0" fill="#fff"/><use xlink:href="#a" x="130.273" y="215.327" fill="#00f"/><path d="M162.777 212.773l7.496-12.128" stroke-width="1.2" stroke="#000" stroke-miterlimit="10" fill="none"/><path d="M170.273 200.645l7.493-12.13M177.766 188.516l-6.758-12.555" stroke-width="1.2" stroke="#00f" stroke-miterlimit="10" fill="none"/><path d="M171.008 175.96l-6.758-12.554" stroke-width="1.2" stroke="#000" stroke-miterlimit="10" fill="none"/><path d="M170.508 189.184l-5.406-10.043" stroke-width="1.2" stroke="#00f" stroke-miterlimit="10" fill="none"/><path d="M165.102 179.14l-5.407-10.042" stroke-width="1.2" stroke="#000" stroke-miterlimit="10" fill="none"/><path d="M173.766 182.016h8v13h-8zm0 0" fill="#fff"/><use xlink:href="#a" x="173.766" y="191.917" fill="#00f"/><path d="M164.25 163.406l7.496-12.13" stroke-width="1.2" stroke="#000" stroke-miterlimit="10" fill="none"/><path d="M171.746 151.277l7.492-12.132M179.238 139.145l14.254.425" stroke-width="1.2" stroke="#00f" stroke-miterlimit="10" fill="none"/><path d="M193.492 139.57l14.25.426" stroke-width="1.2" stroke="#000" stroke-miterlimit="10" fill="none"/><path d="M171.238 132.645h17v13h-17zm0 0" fill="#fff"/><g fill="#00f"><use xlink:href="#a" x="171.238" y="142.546"/><use xlink:href="#b" x="179.222" y="142.546"/></g><path d="M207.742 139.996l13.516 25.11M215.004 139.328l10.812 20.086M222.73 115.738l-14.988 24.258M221.258 165.105l28.504.852M249.762 165.957l7.496-12.13" stroke-width="1.2" stroke="#000" stroke-miterlimit="10" fill="none"/><path d="M257.258 153.828l7.492-12.133" stroke-width="1.2" stroke="#00f" stroke-miterlimit="10" fill="none"/><path d="M245.55 160.004l5.997-9.703" stroke-width="1.2" stroke="#000" stroke-miterlimit="10" fill="none"/><path d="M251.547 150.3l5.996-9.702M264.75 141.695l-6.758-12.554" stroke-width="1.2" stroke="#00f" stroke-miterlimit="10" fill="none"/><path d="M257.992 129.14l-6.758-12.554" stroke-width="1.2" stroke="#000" stroke-miterlimit="10" fill="none"/><path d="M260.75 135.195h8v13h-8zm0 0" fill="#fff"/><use xlink:href="#a" x="260.75" y="145.097" fill="#00f"/><path d="M251.234 116.586l-28.504-.848M248.184 123.21l-22.8-.683" stroke-width="1.2" stroke="#000" stroke-miterlimit="10" fill="none"/></g></svg>
